X:188
T: Altes Fastenlied
N: A0546A
O: Europa, Mitteleuropa, Deutschland
N: Beuttners Gsgb. 1602 I No. 15.
R: Romanze, Ballade, Lied, religioeses Lied
M: 4/2
L: 1/4
K: G
G2 | G4d4 | A4c4 | _B4A4 | G4z2
G2 | G4d4 | A4c4 | _B4A4 | G4z2
G2 | =F4_B4 | A4A2G2 | =F2D2E4 | D4z2
D2 | =F4G4 | A4d4 | d3c_B2A2 | G4z2
DE | =F4G4 | A2_B2c2d2 | _B4A4 | G6

